X:1406
T:the Pigeon On The Gate
R:reel
B:O'Neill's 1850 #1406
O:F.O'Neill
Z:Transcribed by Bob Safranek, rjs@gsp.org
M:C|
L:1/8
K:Ador
gf |:\
e>A (3AAA egfg | e>A (3AAA e2 dB |\
[1 G2 (BG) dGBG | GBdf g2 (fg) :|\
[2 GBde g2 ga | bagb a2 |]
(ag) |:\
eaag abag | eaab c'bag |\
[1 eggf gage | dega bgag :|\
[2 edef gage | dBGB A2 |]
